X:1
T:Title
%%score { ( 1 4 5 ) | ( 2 3 ) }
L:1/8
Q:1/4=100
M:4/4
K:G
V:1 treble nm="Grand Piano"
V:4 treble 
V:5 treble 
V:2 bass 
V:3 bass 
V:1
 [DB]2 [CDA]2 [B,DG]2 .[G,B,DE]2 | F4 z4 | c2 z2 F2 z2 | A4 z4 | [Gd]2 [Gd]2 [=FB]2 [B,DFG]2 | %5
w: Lyman~F.~Jackson * * *|||||
 .A2 z2 e2 z2 | [DB]2 [CA]2 [B,^G]2 [CA]2 | d6 z2 | z8 | F4 z4 | c2 z2 F2 z2 | E4 z4 | %12
w: |||||||
 [G,CE]2 [A,CDF]2 [B,EG]2 [A,CDFA]2 | BB_B=B c2 e2 | d2 [DB]2 B2 A2 | G6 z2 | [Fd]2 z2 z cAc | %17
w: |||||
 z2 [GB]4 z2 | [FB]2 [FB]2- [FB]AFA | z2 [EG]4 z2 | z2 [ce]4 z2 | [DGBd]2 z2 z dAB | %22
w: |||||
 [Ac]2 z2 z Adc | z2 [GB]4 z2 | z2 [Gce]4 z2 | [DGBd]2 z2 z dcB | [Fc]4 z4 | G6 z2 |] %28
w: ||||||
V:2
 G,,2 [D,F,A,]2 G,,2 z G | A,,2 z E/D/ D,,2 D,2 | z4 z2 D,2 | %3
 F,,2 z[K:treble] ^G/A/[K:bass] G,,2 [D,G,B,]2 | B,,2 [D,G,B,]2 G,,2 G,2 | %5
 z[K:treble] A z A[K:bass] C,,2 [E,A,]2 | F,,2 [D,F,A,]2 D,,2 [D,F,A,]2 | G,,2 G,2 F,2 D,2 | %8
 G,,2 [D,F,A,CD]2 G,,2 z G | A,,2 z E/D/ D,,2 D,2 | z4 z2 D,2 | G,,2 z D/^C/ D,,2 D,2 | %12
 C,2 A,,2 E,2 D,2 | [G,B,D]2 z2 z4 | [D,G,B,]2 [G,B,]2 [D,F,C]2 [F,A,CD]2 | %15
 [G,B,D]2 [G,B,]2 [G,B,]2 z2 | F,,2 [F,A,CD]2 z[K:treble] FFF | G,,2 G,2 B,,2 G,2 | %18
 ^D,2 [D,F,A,B,]2 z ^DDD | E,2 G,2 B,,2 E,2 | C,2[K:treble] [G,CE]2 z [Ec][DB][^C_B] | %21
 G,,2 [D,G,B,]2 z[K:treble] [DB][CF][B,^G] | [D,C]2 [F,CD]2 z[K:treble] [A,F][DFB][CA] | %23
 G,,2 [D,G,B,]2 G,2 B,2 | C,2[K:treble] [G,CE]2 z [Ec][DB][^C_B] | %25
 G,,2 [D,G,B,]2 z[K:treble] [DB][CA][B,^G] | A,,2 z C D,,2 [D,F,A,]2 | %27
 [G,,G,]2 [G,B,]2 [G,B,]2 z2 |] %28
V:3
 z4 z2 D,2 | z2 D,2 z4 | F,,2 [D,F,]2 D,,2 z D | z2 F,2[K:treble][K:bass] z4 | x8 | %5
 C,2[K:treble] E,2[K:bass] z4 | x8 | x8 | z4 z2 D,2 | z2 D,2 z4 | F,,2 [D,F,]2 D,,2 z D | %11
 z2 D,2 z4 | x8 | G2- [=F,G,B,DG-]2 [E,G,CG-]2 [C,G,CG]2 | x8 | x8 | z4 D,,2[K:treble] [F,A,CD]2 | %17
 x8 | z4 B,,2 [^D,F,A,B,]2 | x8 | z4[K:treble] [G,C]2 z2 | z4 [D,G,]2[K:treble] z2 | %22
 z4 [F,C]2[K:treble] z2 | x8 | z4[K:treble] [G,C]2 z2 | z4 [D,G,]2[K:treble] z2 | z2 D,2 z4 | x8 |] %28
V:4
 x8 | C2- [F,A,C-]2 [C-F]2 [F,A,CD]2 | D2- [A,DA]2 C2- [F,A,CE]2 | D2- [A,CD-]2 [D-_B]2 [D=B]2 | %4
 x8 | E2- [A,CE^G]2 [EG]2- [CEGc]2 | x8 | z4 [Ac]4 | x8 | C2- [F,A,C-]2 [C-F]2 [F,A,CD]2 | %10
 D2- [A,DA]2 C2- [F,A,CE]2 | B,2 G,2 E2 [G,B,D]2 | x8 | x8 | G4 F4 | z2 D2 D2 z2 | z2 [Fd]4 z2 | %17
 [GB]2 [B,D]2 z2 [B,D]2 | x8 | [EG]2 B,2 z2 [G,B,]2 | [EGce]2 z2 Eed^c | z2 [DGBd]4 z2 | %22
 z2 [Ac]4 z2 | [B,GB]2 z2 [B,D]2 [DG]2 | [EGce]2 z2 Eed^c | z2 [DGBd]4 z2 | %26
 C2 C[DFA] [B,DB]2 [CA]2 | B,2 D2 D2 z2 |] %28
V:5
 x8 | x8 | x8 | x8 | x8 | x8 | x8 | B2- [B,DB-]2 [CDB-]2 [F,A,CB-]2 | [DB]2 A2 [B,DG]2 .[G,B,DE]2 | %9
 x8 | x8 | z2 B,4 z2 | x8 | x8 | x8 | x8 | z4 D,2 z2 | x8 | x8 | x8 | x8 | z4 B,2 z2 | z4 D2 z2 | %23
 x8 | x8 | z4 B,2 z2 | z2 F,2 z4 | x8 |] %28

